!!!COM: Mozart, Wolfgang Amadeus
!!!OTL: String Quartet No. 21 in D Major ("The Violet")
!!!OMD: Andante
!!!OMV: 2
!!!SCT1: K<sup>1</sup> 575
!!!SCA: Chronologisch-thematisches Verzeichnis sämtlicher Tonwerke Wolfgang Amade Mozarts (L. von Köchel; 1862, 2/1905, 3/1937, 1947)
!!!SCT2: K<sup>6</sup> 575
!!!YOR: Breitkopf & Härtel Edition
!!!ENC: Frances Bennion
!!!CDT: 1756/1/27/-1791/12/5/
!!!OCY: Österreich
!!!YEC: Copyright (c) 1994, 2000 Center for Computer Assisted Research in the Humanities
!!!YEM: Rights to all derivative editions reserved.
!!!YEM: Refer to licensing agreement for further details.
!!!YEN: United States of America
**kern	**kern	**kern	**kern
*k[f#c#g#]	*k[f#c#g#]	*k[f#c#g#]	*k[f#c#g#]
*A:	*A:	*A:	*A:
*clefC	*clefF	*clefG	*clefG
*M3/4	*M3/4	*M3/4	*M3/4
4AA	2A	2c#	2cc#
4AA	.	.	.
4AA	4B	4d	4dd
=2	=2	=2	=2
[3..AA	4d	4f#	4ff#
.	8.c#	8.e	8.ee
.	16B	16d	16dd
.	8A	8c#	8cc#
24AA]	.	.	.
8r	8r	8r	8r
=3	=3	=3	=3
8A	8f#	8a	8aa
8r	16e	16g#	16gg#
.	16r	16r	16r
8A	8e	8g#	8gg#
8r	16d	16f#	16ff#
.	16r	16r	16r
8A	8d	8f#	8ff#
8r	16c#	16e	16ee
.	16r	16r	16r
=4	=4	=4	=4
4A	[8c#	[8e	[12..ee
.	32c#]	32e]	.
.	.	.	96ee]
.	32d	32f#	32ff#
.	32B	32d	32dd
.	32c#	32e	32ee
8r	8A	8c#	8cc#
8A	4.r	4.r	4.r
8C#	.	.	.
8E	.	.	.
=5	=5	=5	=5
8AA	8r	4c#	4cc#
3..r	8A	.	.
.	8B	8.d	8.dd
.	8A	.	.
.	.	16B	16b
.	8G#	8e	8ee
.	8E	8r	8r
24r	.	.	.
=6	=6	=6	=6
2.r	8r	4c#	4cc#
.	8A	.	.
.	8B	8.d	8.dd
.	8A	.	.
.	.	16B	16b
.	8G#	8e	8ee
.	8E	8r	8r
=7	=7	=7	=7
8F#	8A	8c#	8cc#
8r	8r	8r	8r
8F#	8A	8c#	8cc#
8r	8r	8r	8r
8D	16B	16d	16dd
.	16c#	16e	16ee
8r	16d	16f#	16ff#
.	16B	16d	16dd
=8	=8	=8	=8
2.E	4A	4c#	4cc#
.	2G#	4.B	4.b
.	.	8B#	8b#
=9	=9	=9	=9
4AA	4.A	4.c#	4.cc#
4AA	.	.	.
.	8c#	8e	8ee
4AA	8B	8d	8dd
.	8d	8f#	8ff#
=10	=10	=10	=10
[3..AA	4d	4f#	4ff#
.	8.c#	8.e	8.ee
.	16B	16d	16dd
.	8A	8c#	8cc#
24AA]	.	.	.
8r	8r	8r	8r
=11	=11	=11	=11
8A	16r	16r	16r
.	16f#	16a	16aa
8r	16f#	16a	16aa
.	16e	16g#	16gg#
8A	16r	16r	16r
.	16e	16g#	16gg#
8r	16e	16g#	16gg#
.	16d	16f#	16ff#
8A	16r	16r	16r
.	16d	16f#	16ff#
8r	16d	16f#	16ff#
.	16c#	16e	16ee
=12	=12	=12	=12
4A	[8c#	[8e	[12..ee
.	32c#]	32e]	.
.	.	.	96ee]
.	32d	32f#	32ff#
.	32B	32d	32dd
.	32c#	32e	32ee
8r	8A	8c#	8cc#
8A	4.r	4.r	4.r
8C#	.	.	.
8E	.	.	.
=13	=13	=13	=13
8AA	8r	4cc#	4ccc#
3..r	8a	.	.
.	8b	8.dd	8.ddd
.	8a	.	.
.	.	16b	16bb
.	8g#	8ee	8eee
.	8e	8r	8r
24r	.	.	.
=14	=14	=14	=14
2.r	8r	4cc#	4ccc#
.	8a	.	.
.	8b	8.dd	8.ddd
.	8a	.	.
.	.	16b	16bb
.	8g#	8ee	8eee
.	8e	[8e	16.r
.	.	.	32gg#
=15	=15	=15	=15
2.r	8c#	8e]	16.aa
.	.	.	32cc#
.	8d	8f#	16.b
.	.	.	32ff#
.	8e	8c#	4.a
.	8r	8r	.
.	8E	8B	.
.	8r	8r	8g#
=16	=16	=16	=16
4C#	4c#	16A	16a
.	.	16c#	16cc#
.	.	8.e	8.ee
8.D	8.d	.	.
.	.	16f#	16ff#
.	.	16e	16ee
16BB	16B	16d	16dd
8E	8e	16c#	16cc#
.	.	16B	16b
8r	8r	16A	16a
.	.	16G#	16g#
=17	=17	=17	=17
4C#	4c#	16A	16a
.	.	16c#	16cc#
.	.	16e	16ee
.	.	16e	16ee
8.D	8.d	16e	16ee
.	.	16f#	16ff#
.	.	16e	16ee
16BB	16B	16d	16dd
8E	8e	16c#	16cc#
.	.	16B	16b
16.r	[8e	16A	16a
.	.	16G#	16g#
32D	.	.	.
=18	=18	=18	=18
8C#	8e]	8A	24a
.	.	.	24ee
.	.	.	24aa
8D	8d	8f#	24b
.	.	.	24dd
.	.	.	24ff#
8E	8c#	8e	4.a
8r	8r	8r	.
8EE	8G#	8e 8d	.
8r	8r	8r	16cc#
.	.	.	16b
=19	=19	=19	=19
4AA	8r	8r	4a
.	8A	8e 8c#	.
2r	8A	8e 8c#	8r
.	8A	8e 8c#	8ee
.	8A	8e 8c#	8aa
.	8G#	8e 8d	8bb
=20	=20	=20	=20
4AA	8r	8r	4.ccc#
.	8A	8e 8c#	.
2r	8A	8e 8c#	.
.	8A	8e 8c#	16bb
.	.	.	16ccc#
.	8A	8e 8c#	16ddd
.	.	.	16ccc#
.	8A	8e 8c#	16bb
.	.	.	16aa
=21	=21	=21	=21
4EE	8r	8r	16bb
.	.	.	16aa
.	8B	8e 8d	16gg#
.	.	.	16aa
8r	8B	8e 8d	4gg#
8E	8B	8e 8d	.
8B	4r	8B	8e 8d
8c#	.	8A	8e 8c#
=22	=22	=22	=22
4.d	4E	8r	8r
.	.	8G#	8e 8B
.	2r	8G#	8e 8B
16c#	.	8G#	8e 8B
16d	.	.	.
16e	.	8G#	8e 8B
16d	.	.	.
16c#	.	8G#	8e 8d
16B	.	.	.
=23	=23	=23	=23
16c#	4A	8r	8r
16B	.	.	.
16A	.	8A	8e 8c#
16B	.	.	.
4A	8r	8A	8e 8c#
.	8A	8ee	8e 8c#
4r	8A	8aa	8e 8c#
.	8G#	8bb	8e 8d
=24	=24	=24	=24
4A	8r	4.ccc#	8r
.	8A	.	8e [8c#
2r	8A	.	8e# 8c#]
.	8A	16ddd	8f# 8c#
.	.	16ccc#	.
.	8A	16bb	8f# 8c#
.	.	16aa	.
.	8A	16gg#	8f# 8c#
.	.	16ff#	.
=25	=25	=25	=25
4G#	8r	16gg#	8r
.	.	16ff#	.
.	8B	16ee#	8e# 8c#
.	.	16ff#	.
2r	8B	8ee#	8e# 8c#
.	8c#	8e# 8c#	8B
.	8e#	8e# 8c#	8B
.	8g#	8e# 8c#	8B
=26	=26	=26	=26
4C#	4.b	8r	8r
.	.	8e# 8c#	8g#
2r	.	8e# 8c#	8g#
.	16cc#	8e# 8c#	8g#
.	16dd	.	.
.	16cc#	8e# 8c#	8g#
.	16b	.	.
.	16a	8e# 8c#	8b
.	16g#	.	.
=27	=27	=27	=27
4F#	8.g#	8r	8r
.	.	8e# [8c#	8g#
.	32b	.	.
.	32a	.	.
2r	8a	8f# 8c#]	8a
.	8a	8f# 8c#	8a
.	8a	8f# 8c#	8cc#
.	8a	8f# 8c#	8ff#
=28	=28	=28	=28
4BB	4r	2f# 2d#	4.aa
8r	4B	.	.
8b	.	.	16bb
.	.	.	16aa
8dd#	4A	4b	16gg#
.	.	.	16ff#
8ff#	.	.	16ee
.	.	.	16dd#
=29	=29	=29	=29
4.bb	2.G#	4e	8.ee
.	.	.	16ff#
.	.	2r	8.gg#
16ccc#	.	.	.
16bb	.	.	16aa
16aa	.	.	8bb
16gg#	.	.	.
16ff#	.	.	16r
16ee	.	.	16bb
=30	=30	=30	=30
16.gg#	2A	2.r	16.bb
32ff#	.	.	32aa
16.aa	.	.	16.ccc#
32gg#	.	.	32bb
4ff#	.	.	4aa
4ee	4A#	.	4gg#
=31	=31	=31	=31
8dd#	4B	2.r	8ff#
4gg	.	.	4bb
.	4c	.	.
4ff#	.	.	4aa
.	4A#	.	.
8ee	.	.	8gg
=32	=32	=32	=32
8dd#	8B	8r	4ff#
8r	4G	4b	.
4C	.	.	2r
.	4F#	4a	.
4AA#	.	.	.
.	8E	8g	.
=33	=33	=33	=33
2BB	8.G	8.b	2r
.	16E	16g	.
.	4D#	4f#	.
4r	4r	4r	16.bb
.	.	.	32gg#
.	.	.	16.aa
.	.	.	32ff#
=34	=34	=34	=34
2.r	8r	[2.ee	4..ee
.	8ee	.	.
.	8dd#	.	.
.	8dd	.	.
.	.	.	32ff#
.	.	.	32gg#
.	8cc#	.	8aa
.	8b	.	8gg#
=35	=35	=35	=35
2.r	8a	4.ee]	8ccc#
.	8g#	.	8bb
.	8f#	.	8aa#
.	8B	8dd#	4aa
.	8B#	8ff#	.
.	8c#	8ee	8gg#
=36	=36	=36	=36
2.r	4A	8.cc#	16.gg#
.	.	.	32ff#
.	.	.	16.aa
.	.	16a	.
.	.	.	32ff#
.	4B	4g#	4ee
.	4B	4dd#	4ff#
=37	=37	=37	=37
2r	4E	8.ee	8.gg#
.	.	16ff#	16aa
.	2r	4gg#	4bb
16.bb	.	4r	4r
32gg#	.	.	.
16.aa	.	.	.
32ff#	.	.	.
=38	=38	=38	=38
4..ee	8r	[2.e	2.r
.	8e	.	.
.	8d#	.	.
.	8d	.	.
32ff#	.	.	.
32gg#	.	.	.
8aa	8c#	.	.
8gg#	8B	.	.
=39	=39	=39	=39
8ccc#	8A	4.e]	2.r
8bb	8G#	.	.
8aa#	8G	.	.
4aa	8F#	8d#	.
.	8BB#	8f#	.
8gg#	8C#	8e	.
=40	=40	=40	=40
16ff#	8A	8r	8r
16ccc#	.	.	.
16aa	8r	8c#	8a
16ff#	.	.	.
4ee	8B	8r	8r
.	8r	8B	8g#
8gg#	8B	8r	8r
16.ff#	8r	8A	8d#
32ee	.	.	.
=41	=41	=41	=41
2.ee	4.E	4G#	4e
.	.	2e	2g#
.	8E	.	.
.	8E	.	.
.	8E	.	.
=42	=42	=42	=42
4dd#	4.E	4f#	4a
4.dd	.	2g#	2b
.	8E	.	.
.	8E	.	.
16cc#	8E	.	.
16dd	.	.	.
=43	=43	=43	=43
4.cc#	8A	8a	8cc#
.	8r	8r	8r
.	8A	8A	8c#
8ee	8r	8r	8r
8dd	8A	8B	8d
8ff#	8r	8r	8r
=44	=44	=44	=44
4ff#	4A	4d	4f#
8.ee	2r	8.c#	8.e
16dd	.	16B	16d
8cc#	.	8A	8c#
8r	.	8r	8r
=45	=45	=45	=45
8.aa	8A	8r	8r
.	8r	16f#	16a
16gg#	.	16e	16g#
8.gg#	8A	8r	8r
.	8r	16e	16g#
16ff#	.	16d	16f#
8.ff#	8A	8r	8r
.	8r	16d	16f#
16ee	.	16c#	16e
=46	=46	=46	=46
[12..ee	4A	4c#	4e
96ee]	.	.	.
32ff#	.	.	.
32ee	.	.	.
32dd	.	.	.
8cc#	8r	2r	2r
4.r	8a	.	.
.	8e	.	.
.	8c#	.	.
=47	=47	=47	=47
4cc#	16A	[2.e	[2.ee
.	16E	.	.
.	16A	.	.
.	16E	.	.
8.dd	16B	.	.
.	16E	.	.
.	16B	.	.
16b	16A	.	.
8ee	16G#	.	.
.	16E	.	.
8r	16F#	.	.
.	16G#	.	.
=48	=48	=48	=48
4cc#	16A	2e_	3..ee_
.	16E	.	.
.	16A	.	.
.	16E	.	.
8.dd	16B	.	.
.	16E	.	.
.	16B	.	.
16b	16A	.	.
8ee	16G#	8e]	.
.	16E	.	.
.	.	.	24ee]
8r	16F#	8r	8r
.	16G#	.	.
=49	=49	=49	=49
8cc#	16A	2.r	8A
.	16G#	.	.
8r	16A	.	8r
.	16G#	.	.
8cc#	16F#	.	8A
.	16E#	.	.
8r	16F#	.	8r
.	16E	.	.
16dd	8D	.	16B
16ee	.	.	16c#
16ff#	8D	.	16d
16dd	.	.	16B
=50	=50	=50	=50
4cc#	16E	2.r	4A
.	16D#	.	.
.	16E	.	.
.	16D#	.	.
4b	16E	.	4G#
.	16d#	.	.
.	16e	.	.
.	16d#	.	.
4r	16e	.	4r
.	16f#	.	.
.	16d	.	.
.	16B	.	.
=51	=51	=51	=51
4AA	[4A	[4c#	[6..cc#
4AA	16A]	16c#]	.
.	.	.	48cc#]
.	16E	16A	16a
.	16A	16c#	16cc#
.	16c#	16e	16ee
4AA	16B	16d	16dd
.	16G#	16B	16b
.	16B	16d	16dd
.	16d	16f#	16ff#
=52	=52	=52	=52
[3..AA	4d	4f#	4ff#
.	8.c#	8.e	8.ee
.	16B	16d	16dd
.	8A	8c#	8cc#
24AA]	.	.	.
8r	8r	8r	8r
=53	=53	=53	=53
8A	16r	16r	16r
.	16A	16A	16a
8r	16f#	16a	16aa
.	16f#	16a	16aa
8A	16r	16r	16r
.	16A	16A	16a
8r	16e	16g#	16gg#
.	16e	16g#	16gg#
8A	16r	16r	16r
.	16A	16A	16a
8r	16d	16f#	16ff#
.	16d	16f#	16ff#
=54	=54	=54	=54
4A	[8c#	[8e	[12..ee
.	32c#]	32e]	.
.	.	.	96ee]
.	32d	32f#	32ff#
.	32c#	32e	32ee
.	32B	32d	32dd
16r	8A	8c#	8cc#
16AA	.	.	.
16BB	4.r	4.r	4.r
16C#	.	.	.
16D	.	.	.
16E	.	.	.
16F#	.	.	.
16G#	.	.	.
=55	=55	=55	=55
16A	2.r	4c#	4cc# 4e
16c#	.	.	.
16B	.	.	.
16A	.	.	.
16A	.	8.d	8.dd
16G#	.	.	.
16F#	.	.	.
16E	.	16B	16b
16E	.	8e	8ee 8e
16D	.	.	.
16C#	.	8r	8r
16BB	.	.	.
=56	=56	=56	=56
16AA	16r	4cc# 4e	4ccc#
16c#	16cc#	.	.
16B	16b	.	.
16A	16a	.	.
16A	16a	8.dd	8.ddd
16G#	16g#	.	.
16F#	16f#	.	.
16E	16e	16b	16bb
16E	16e	8ee 8e	8eee
16D	16d	.	.
16C#	16c#	16.r	16.r
16BB	16B	.	.
.	.	32gg#	32ddd
=57	=57	=57	=57
8AA	8A	8aa	16.ccc#
.	.	.	32aa
8D	8d	8b	16.ff#
.	.	.	32dd
8E	8e	8a	8cc#
8r	8r	8r	8.ee
8EE	8E	8g#	.
.	.	.	16dd
8r	8r	8r	16b
.	.	.	16g#
=58	=58	=58	=58
2.r	4c#	2.r	16r
.	.	.	16g#
.	.	.	8.a
.	8.d	.	.
.	.	.	16a#
.	.	.	8.b
.	16B	.	.
.	8e	.	.
.	.	.	16e
.	8r	.	16f#
.	.	.	16g#
=59	=59	=59	=59
4C#	4c#	16r	16a
.	.	16g#	16gg#
.	.	8.a	8.aa
8.D	8.d	.	.
.	.	16a#	16aa#
.	.	8.b	8.bb
16BB	16B	.	.
8E	8e	.	.
.	.	16e	16ee
16.r	16.r	16f#	16ff#
.	.	16g#	16gg#
32D	32d	.	.
=60	=60	=60	=60
8C#	8c#	8a	24aa
.	.	.	24ee
.	.	.	24cc#
8D	8f#	8d	24b
.	.	.	24dd
.	.	.	24ff#
8E	8e	8c#	4.a
8r	8r	8r	.
8EE	8G#	8e 8d	.
8r	8r	8r	16cc#
.	.	.	16b
=61	=61	=61	=61
4AA	8r	8r	4a
.	8A	8e 8c#	.
2r	8A	8e 8c#	4r
.	8A	8e 8c#	.
.	8A	8f# 8d	8.ff#
.	8A	8f# 8d	.
.	.	.	32gg#
.	.	.	32aa
=62	=62	=62	=62
4AA	8r	8r	4aa
.	8A	8e 8c#	.
2r	8A	8e 8c#	4ee
.	8A	8e 8c#	.
.	8A	8f# 8d	8.ff#
.	8A	8f# 8d	.
.	.	.	32gg#
.	.	.	32aa
=63	=63	=63	=63
2AA	8r	8r	3aa
.	8A	8e 8c#	.
.	8A	8e 8c#	.
.	.	.	12ee
.	8A	8e 8c#	.
.	.	.	12cc#
4DD	8F#	8d 8B	12b
.	.	.	12dd
.	8F#	8d 8B	.
.	.	.	12ff#
=64	=64	=64	=64
2.EE	8r	8r	2a
.	8A 8E	8c#	.
.	8A 8E	8c#	.
.	8A [8E	8c#	.
.	8d 8E]	8G#	8cc#
.	8d 8E	8G#	8b
=65	=65	=65	=65
4AA	8r	8r	4a
.	8A	8c#	.
4r	8c#	8e	8r
.	4.r	8c#	8e
8.ff#	.	8d	8f#
.	.	8d	8f#
32gg#	.	.	.
32aa	.	.	.
=66	=66	=66	=66
4aa	4A	8r	8r
.	.	4c#	8e
8ee	2r	.	8a
8ee#	.	8c#	8a
8.ff#	.	8d	8a
.	.	8d	8f#
32gg#	.	.	.
32aa	.	.	.
=67	=67	=67	=67
3aa	2A	8r	8r
.	.	4c#	4e
12ee	.	.	.
.	.	8e	8a
12cc#	.	.	.
12b	4D	8d	8f#
12dd	.	.	.
.	.	8B	8d
12ff#	.	.	.
=68	=68	=68	=68
2a	8E	8r	8r
.	8r	8A	8c#
.	8E	8r	8r
.	8r	8A	8c#
8cc#	8E	8r	8r
8b	8r	8G#	8d
=69	=69	=69	=69
4a	4A	4A	32c#
.	.	.	32A
.	.	.	32B
.	.	.	32c#
.	.	.	32d
.	.	.	32e
.	.	.	32f#
.	.	.	32g#
2r	2r	2r	32a
.	.	.	32g#
.	.	.	32b
.	.	.	32a
.	.	.	32cc#
.	.	.	32b
.	.	.	32dd
.	.	.	32cc#
.	.	.	16ee
.	.	.	16ff#
.	.	.	16gg#
.	.	.	16aa
=70	=70	=70	=70
2.E	16c#	2a	4e
.	16e	.	.
.	16c#	.	.
.	16e	.	.
.	16c#	.	2r
.	16e	.	.
.	16c#	.	.
.	16e	.	.
.	16d	16cc#	.
.	16e	16b	.
.	16d	16a#	.
.	16e	16b	.
=71	=71	=71	=71
32r	4c#	4a	4A
32AA	.	.	.
32BB	.	.	.
32C#	.	.	.
32D	.	.	.
32E	.	.	.
32F#	.	.	.
32G#	.	.	.
32A	2r	2r	2r
32G#	.	.	.
32B	.	.	.
32A	.	.	.
32c#	.	.	.
32B	.	.	.
32d	.	.	.
32c#	.	.	.
16e	.	.	.
16f#	.	.	.
16g#	.	.	.
16a	.	.	.
=72	=72	=72	=72
4A	4D#	4cc	2aa
4r	4E	4cc#	.
4EE	8.r	16ee	16ccc#
.	.	16dd	16bb
.	.	16cc#	16aa#
.	16g#	16dd	16bb
=73	=73	=73	=73
[4AA	4g#	4dd	4bb
8AA]	8a	8cc#	8aa
4.r	4.r	4.r	4.r
==	==	==	==
*-	*-	*-	*-
!!!RWG1: This file contains only pitch and duration data.
!!!RWG2: Transposing instruments are not transposed.
!!!RWG3: Spines may have incompatible meters.
!!!RWG4: Durations of rests and tied notes may be interpreted.
!!!RWG: Key is interpreted using the Humdrum key tool.
!!!AFT: stage1
!!!END: 1997/04/15
!!!KEY: 2279118472
!!!EMD: Converted from MuseData to Humdrum Dec 16, 2000, by Andreas Kornstaedt using muse2kern.
!!!EMD: Manual editing by Craig Sapp, Nov 2001
